svgs/whatsapp.svg

<svg width="192" height="192" viewBox="0 0 192 192" fill="none" xmlns="http://www.w3.org/2000/svg"><path fill-rule="evenodd" clip-rule="evenodd" d="M96 16c-44.183 0-80 35.817-80 80 0 13.12 3.163 25.517 8.771 36.455l-8.608 36.155a6.002 6.002 0 0 0 7.227 7.227l36.155-8.608C70.483 172.837 82.88 176 96 176c44.183 0 80-35.817 80-80s-35.817-80-80-80ZM28 96c0-37.555 30.445-68 68-68s68 30.445 68 68-30.445 68-68 68c-11.884 0-23.04-3.043-32.747-8.389a6.003 6.003 0 0 0-4.284-.581l-28.874 6.875 6.875-28.874a6.001 6.001 0 0 0-.581-4.284C31.043 119.039 28 107.884 28 96Zm46.023 21.977c11.975 11.974 27.942 20.007 45.753 21.919 11.776 1.263 20.224-8.439 20.224-18.517v-6.996a18.956 18.956 0 0 0-13.509-18.157l-.557-.167-.57-.112-8.022-1.58a18.958 18.958 0 0 0-15.25 2.568 42.144 42.144 0 0 1-7.027-7.027 18.958 18.958 0 0 0 2.569-15.252l-1.582-8.021-.112-.57-.167-.557A18.955 18.955 0 0 0 77.618 52H70.62c-10.077 0-19.78 8.446-18.517 20.223 1.912 17.81 9.944 33.779 21.92 45.754Zm33.652-10.179a6.955 6.955 0 0 1 6.916-1.743l8.453 1.665a6.957 6.957 0 0 1 4.956 6.663v6.996c0 3.841-3.124 6.995-6.943 6.585a63.903 63.903 0 0 1-26.887-9.232 64.594 64.594 0 0 1-11.661-9.241 64.592 64.592 0 0 1-9.241-11.661 63.917 63.917 0 0 1-9.232-26.888C63.626 67.123 66.78 64 70.62 64h6.997a6.955 6.955 0 0 1 6.66 4.957l1.667 8.451a6.956 6.956 0 0 1-1.743 6.917l-1.12 1.12a5.935 5.935 0 0 0-1.545 2.669c-.372 1.403-.204 2.921.603 4.223a54.119 54.119 0 0 0 7.745 9.777 54.102 54.102 0 0 0 9.778 7.746c1.302.806 2.819.975 4.223.603a5.94 5.94 0 0 0 2.669-1.545l1.12-1.12Z" fill="#000"/></svg>

<svg id="vector" xmlns="http://www.w3.org/2000/svg" width="192" height="192" viewBox="0 0 192 192"><path fill="#000000" d="M96,16C51.817,16 16,51.817 16,96C16,109.12 19.163,121.517 24.771,132.455L16.163,168.61C15.681,170.637 16.284,172.769 17.757,174.243C19.231,175.716 21.363,176.319 23.39,175.837L59.545,167.229C70.483,172.837 82.88,176 96,176C140.183,176 176,140.183 176,96C176,51.817 140.183,16 96,16ZM28,96C28,58.445 58.445,28 96,28C133.555,28 164,58.445 164,96C164,133.555 133.555,164 96,164C84.116,164 72.961,160.957 63.253,155.611C61.946,154.892 60.419,154.685 58.969,155.03L30.095,161.905L36.97,133.031C37.315,131.581 37.108,130.054 36.389,128.747C31.044,119.039 28,107.884 28,96ZM74.023,117.977L74.023,117.977C85.998,129.951 101.965,137.984 119.776,139.896C131.552,141.159 140,131.457 140,121.379V114.383C140,106.014 134.511,98.632 126.491,96.226L125.934,96.059L125.364,95.947L117.342,94.366C112.082,93.004 106.539,93.976 102.092,96.935C100.787,95.907 99.545,94.803 98.371,93.629C97.197,92.455 96.093,91.213 95.065,89.908C98.024,85.461 98.996,79.917 97.634,74.656L96.052,66.635L95.94,66.065L95.773,65.508C93.368,57.491 85.989,52 77.618,52H70.621C60.544,52 50.841,60.445 52.104,72.223C54.016,90.034 62.048,106.002 74.023,117.977ZM107.675,107.798C109.484,105.989 112.14,105.32 114.591,106.055L123.044,107.72C125.985,108.603 128,111.311 128,114.383V121.379C128,125.22 124.876,128.374 121.057,127.964C114.149,127.223 107.569,125.388 101.493,122.637C98.96,121.49 96.515,120.184 94.17,118.732C89.93,116.106 86.018,113 82.509,109.491C79,105.983 75.894,102.07 73.268,97.83C71.815,95.485 70.509,93.04 69.363,90.507C66.612,84.43 64.777,77.85 64.036,70.942C63.626,67.123 66.78,64 70.621,64H77.618C80.689,64 83.396,66.015 84.279,68.956L85.945,77.408C86.681,79.859 86.011,82.516 84.201,84.325L83.082,85.445C82.324,86.203 81.798,87.13 81.537,88.114C81.165,89.517 81.334,91.035 82.14,92.337C84.341,95.892 86.944,99.173 89.885,102.114L89.886,102.114L89.886,102.114C92.827,105.056 96.108,107.659 99.663,109.86C100.965,110.666 102.482,110.835 103.886,110.463C104.869,110.202 105.797,109.676 106.555,108.918L107.675,107.798Z" fill-rule="evenodd" id="path_0"/></svg>
